src/assets/fleet-icons/mining-board.svg

<svg width="20" height="20" viewBox="0 0 20 20" fill="none" xmlns="http://www.w3.org/2000/svg">
<path d="M7.29199 7.70834V5.41668M7.29199 5.41668C7.29199 6.22209 9.25075 6.87501 11.667 6.87501C14.0832 6.87501 16.042 6.22209 16.042 5.41668M7.29199 5.41668C7.29199 4.61126 9.25075 3.95834 11.667 3.95834C14.0832 3.95834 16.042 4.61126 16.042 5.41668M16.042 5.41668V8.75001C16.042 9.11033 15.65 9.44013 15.0003 9.6946" stroke="#656565" stroke-linecap="round" stroke-linejoin="round"/>
<path d="M12.708 11.25V14.5833C12.708 15.3887 10.7493 16.0417 8.33301 16.0417C5.91676 16.0417 3.95801 15.3887 3.95801 14.5833V11.25M12.708 11.25C12.708 12.0554 10.7493 12.7083 8.33301 12.7083C5.91676 12.7083 3.95801 12.0554 3.95801 11.25M12.708 11.25C12.708 10.4446 10.7493 9.79166 8.33301 9.79166C5.91676 9.79166 3.95801 10.4446 3.95801 11.25" stroke="#656565" stroke-linecap="round" stroke-linejoin="round"/>
</svg>

<svg width="20" height="20" fill="none" xmlns="http://www.w3.org/2000/svg">
    <path
        d="M7.292 7.708V5.417m0 0c0 .805 1.959 1.458 4.375 1.458s4.375-.653 4.375-1.458m-8.75 0c0-.806 1.959-1.459 4.375-1.459s4.375.653 4.375 1.459m0 0V8.75c0 .36-.392.69-1.042.945m-2.292 1.555v3.333c0 .806-1.959 1.459-4.375 1.459s-4.375-.653-4.375-1.459V11.25m8.75 0c0 .805-1.959 1.458-4.375 1.458s-4.375-.653-4.375-1.458m8.75 0c0-.805-1.959-1.458-4.375-1.458s-4.375.653-4.375 1.458"
        stroke="#656565" stroke-linecap="round" stroke-linejoin="round" />
</svg>
